src/components/icons/run-a-node/download-glyph.svg

<svg xmlns="http://www.w3.org/2000/svg" width="1em" height="1em" viewBox="0 0 64 64" fill="currentColor">
  <path d="M7 39.5776H56V54.8221C56 55.4235 55.5125 55.911 54.9111 55.911H8.08889C7.48751 55.911 7 55.4235 7 54.8221V39.5776Z" fill="#B0BDC6"/> <path d="M53.8222 41.7554H9.17778V53.7332H53.8222V41.7554ZM7 39.5776V54.8221C7 55.4235 7.48751 55.911 8.08889 55.911H54.9111C55.5125 55.911 56 55.4235 56 54.8221V39.5776H7Z" fill="#62727A"/> <path d="M14.3879 15.3062L7 39.6776H56L48.6121 15.3062C48.4729 14.8471 48.0497 14.5332 47.57 14.5332H15.43C14.9503 14.5332 14.5271 14.8471 14.3879 15.3062Z" fill="#62727A"/> <path d="M7 39.6776H56L48.6121 15.3062C48.4729 14.8471 48.0497 14.5332 47.57 14.5332H15.43C14.9503 14.5332 14.5271 14.8471 14.3879 15.3062L7 39.6776ZM8.4679 38.5887H54.5321L47.57 15.6221L15.43 15.6221L8.4679 38.5887Z" fill="#2C3033"/> <path d="M34.2221 8V25.4835L38.3861 21.3195L42.2359 25.1693L31.4999 35.9053L20.7639 25.1693L24.6137 21.3195L28.7777 25.4835V8H34.2221Z" fill="white"/> <path d="M33.1332 28.1123V9.08889H29.8666V28.1123L24.6137 22.8595L22.3038 25.1693L31.4999 34.3654L40.6959 25.1693L38.3861 22.8595L33.1332 28.1123ZM38.3861 21.3195L42.2359 25.1693L31.4999 35.9053L20.7639 25.1693L24.6137 21.3195L28.7777 25.4835V8H34.2221V25.4835L38.3861 21.3195Z" fill="#2C3033"/> <path d="M48.3778 47.2002C48.3778 48.403 47.4027 49.378 46.2 49.378C44.9972 49.378 44.0222 48.403 44.0222 47.2002C44.0222 45.9975 44.9972 45.0225 46.2 45.0225C47.4027 45.0225 48.3778 45.9975 48.3778 47.2002Z" fill="#62727A"/>
</svg>

<svg xmlns="http://www.w3.org/2000/svg" width="1em" height="1em" fill="currentColor" viewBox="0 0 64 64" alt="Software download glyph">
<path fill="#B0BDC6" d="M7 39.578h49v15.244c0 .601-.487 1.089-1.089 1.089H8.09A1.09 1.09 0 0 1 7 54.822z"/>
<path fill="#62727A" d="M53.822 41.755H9.178v11.978h44.644zM7 39.578v15.244c0 .601.488 1.089 1.089 1.089H54.91c.602 0 1.089-.488 1.089-1.089V39.578z"/>
<path fill="#62727A" d="M14.388 15.306 7 39.678h49l-7.388-24.372a1.09 1.09 0 0 0-1.042-.773H15.43c-.48 0-.903.314-1.042.773"/>
<path fill="#2C3033" d="M7 39.678h49l-7.388-24.372a1.09 1.09 0 0 0-1.042-.773H15.43c-.48 0-.903.314-1.042.773zm1.468-1.09h46.064L47.57 15.623H15.43z"/>
<path fill="#fff" d="M34.222 8v17.484l4.164-4.164 3.85 3.85L31.5 35.904 20.764 25.17l3.85-3.85 4.164 4.165V8z"/>
<path fill="#2C3033" d="M33.133 28.112V9.09h-3.266v19.023l-5.253-5.252-2.31 2.31 9.196 9.195 9.196-9.196-2.31-2.31zm5.253-6.792 3.85 3.85L31.5 35.904 20.764 25.17l3.85-3.85 4.164 4.165V8h5.444v17.484z"/>
<path fill="#62727A" d="M48.378 47.2a2.178 2.178 0 1 1-4.356 0 2.178 2.178 0 0 1 4.356 0"/>
</svg>
